svgs/thin/drone.svg

<svg xmlns="http://www.w3.org/2000/svg" viewBox="0 0 512 512"><!--! Font Awesome Pro 6.4.2 by @fontawesome - https://fontawesome.com License - https://fontawesome.com/license (Commercial License) Copyright 2023 Fonticons, Inc. --><path d="M112 16c-53 0-96 43-96 96c0 48 35.2 87.8 81.2 94.9c4.8 .7 9.7 1.1 14.8 1.1c4.4 0 8 3.6 8 8s-3.6 8-8 8c-5.9 0-11.6-.4-17.2-1.3C41.1 214.4 0 168 0 112C0 50.1 50.1 0 112 0c56 0 102.4 41.1 110.7 94.8c.9 5.6 1.3 11.4 1.3 17.2c0 4.4-3.6 8-8 8s-8-3.6-8-8c0-5-.4-10-1.1-14.8C199.8 51.2 160 16 112 16zm0 72a24 24 0 1 0 0 48 24 24 0 1 0 0-48zM72 112c0-22.1 17.9-40 40-40s40 17.9 40 40c0 8.2-2.4 15.7-6.6 22.1L171.3 160H340.7l25.9-25.9c-4.2-6.3-6.6-13.9-6.6-22.1c0-22.1 17.9-40 40-40s40 17.9 40 40s-17.9 40-40 40c-8.2 0-15.7-2.4-22.1-6.6L352 171.3V340.7l25.9 25.9c6.3-4.2 13.9-6.6 22.1-6.6c22.1 0 40 17.9 40 40s-17.9 40-40 40s-40-17.9-40-40c0-8.2 2.4-15.7 6.6-22.1L340.7 352H171.3l-25.9 25.9c4.2 6.3 6.6 13.9 6.6 22.1c0 22.1-17.9 40-40 40s-40-17.9-40-40s17.9-40 40-40c8.2 0 15.7 2.4 22.1 6.6L160 340.7V171.3l-25.9-25.9c-6.3 4.2-13.9 6.6-22.1 6.6c-22.1 0-40-17.9-40-40zm40 264a24 24 0 1 0 0 48 24 24 0 1 0 0-48zm264 24a24 24 0 1 0 48 0 24 24 0 1 0 -48 0zM400 88a24 24 0 1 0 0 48 24 24 0 1 0 0-48zM176 336H336V176H176V336zM496 112c0-53-43-96-96-96c-48 0-87.8 35.2-94.9 81.2c-.7 4.8-1.1 9.7-1.1 14.8c0 4.4-3.6 8-8 8s-8-3.6-8-8c0-5.9 .4-11.6 1.3-17.2C297.6 41.1 344 0 400 0c61.9 0 112 50.1 112 112c0 56-41.1 102.4-94.8 110.7c-5.6 .9-11.4 1.3-17.2 1.3c-4.4 0-8-3.6-8-8s3.6-8 8-8c5 0 10-.4 14.8-1.1c46-7.1 81.2-46.9 81.2-94.9zM112 496c48 0 87.8-35.2 94.9-81.2c.7-4.8 1.1-9.8 1.1-14.8c0-4.4 3.6-8 8-8s8 3.6 8 8c0 5.9-.4 11.6-1.3 17.2C214.4 470.9 168 512 112 512C50.1 512 0 461.9 0 400c0-56 41.1-102.4 94.8-110.7c5.6-.9 11.4-1.3 17.2-1.3c4.4 0 8 3.6 8 8s-3.6 8-8 8c-5 0-10 .4-14.8 1.1C51.2 312.2 16 352 16 400c0 53 43 96 96 96zm384-96c0-48-35.2-87.8-81.2-94.9c-4.8-.7-9.8-1.1-14.8-1.1c-4.4 0-8-3.6-8-8s3.6-8 8-8c5.9 0 11.6 .4 17.2 1.3C470.9 297.6 512 344 512 400c0 61.9-50.1 112-112 112c-56 0-102.4-41.1-110.7-94.8c-.9-5.6-1.3-11.4-1.3-17.2c0-4.4 3.6-8 8-8s8 3.6 8 8c0 5 .4 10 1.1 14.8c7.1 46 46.9 81.2 94.9 81.2c53 0 96-43 96-96z"/></svg>

<svg xmlns="http://www.w3.org/2000/svg" viewBox="0 0 512 512"><!--! Font Awesome Pro 6.1.1 by @fontawesome - https://fontawesome.com License - https://fontawesome.com/license (Commercial License) Copyright 2022 Fonticons, Inc. --><path d="M112 16C58.98 16 16 58.98 16 112C16 159.1 51.22 199.8 97.22 206.9C102 207.6 106.1 208 112 208C116.4 208 120 211.6 120 216C120 220.4 116.4 224 112 224C106.1 224 100.4 223.6 94.78 222.7C41.1 214.4 0 168 0 112C0 50.14 50.14 0 112 0C168 0 214.4 41.1 222.7 94.78C223.6 100.4 224 106.1 224 112C224 116.4 220.4 120 216 120C211.6 120 208 116.4 208 112C208 106.1 207.6 102 206.9 97.22C199.8 51.22 159.1 16 112 16V16zM72 112C72 89.91 89.91 72 112 72C134.1 72 152 89.91 152 112C152 120.2 149.6 127.7 145.4 134.1L171.3 160H340.7L366.6 134.1C362.4 127.7 360 120.2 360 112C360 89.91 377.9 72 400 72C422.1 72 440 89.91 440 112C440 134.1 422.1 152 400 152C391.8 152 384.3 149.6 377.9 145.4L352 171.3V340.7L377.9 366.6C384.3 362.4 391.8 360 400 360C422.1 360 440 377.9 440 400C440 422.1 422.1 440 400 440C377.9 440 360 422.1 360 400C360 391.8 362.4 384.3 366.6 377.9L340.7 352H171.3L145.4 377.9C149.6 384.3 152 391.8 152 400C152 422.1 134.1 440 112 440C89.91 440 72 422.1 72 400C72 377.9 89.91 360 112 360C120.2 360 127.7 362.4 134.1 366.6L160 340.7V171.3L134.1 145.4C127.7 149.6 120.2 152 112 152C89.91 152 72 134.1 72 112zM112 88C98.75 88 88 98.75 88 112C88 125.3 98.75 136 112 136C125.3 136 136 125.3 136 112C136 98.75 125.3 88 112 88zM112 376C98.75 376 88 386.7 88 400C88 413.3 98.75 424 112 424C125.3 424 136 413.3 136 400C136 386.7 125.3 376 112 376zM400 424C413.3 424 424 413.3 424 400C424 386.7 413.3 376 400 376C386.7 376 376 386.7 376 400C376 413.3 386.7 424 400 424zM400 88C386.7 88 376 98.75 376 112C376 125.3 386.7 136 400 136C413.3 136 424 125.3 424 112C424 98.75 413.3 88 400 88zM336 336V176H176V336H336zM496 112C496 58.98 453 16 400 16C352 16 312.2 51.22 305.1 97.22C304.4 102 304 106.1 304 112C304 116.4 300.4 120 296 120C291.6 120 288 116.4 288 112C288 106.1 288.4 100.4 289.3 94.78C297.6 41.1 343.1 0 400 0C461.9 0 512 50.14 512 112C512 168 470.9 214.4 417.2 222.7C411.6 223.6 405.9 224 400 224C395.6 224 392 220.4 392 216C392 211.6 395.6 208 400 208C405 208 409.1 207.6 414.8 206.9C460.8 199.8 496 159.1 496 112V112zM206.9 414.8C207.6 409.1 208 405 208 400C208 395.6 211.6 392 216 392C220.4 392 224 395.6 224 400C224 405.9 223.6 411.6 222.7 417.2C214.4 470.9 168 512 112 512C50.14 512 0 461.9 0 400C0 343.1 41.1 297.6 94.78 289.3C100.4 288.4 106.1 288 112 288C116.4 288 120 291.6 120 296C120 300.4 116.4 304 112 304C106.1 304 102 304.4 97.22 305.1C51.22 312.2 16 352 16 400C16 453 58.98 496 112 496C159.1 496 199.8 460.8 206.9 414.8zM414.8 305.1C409.1 304.4 405 304 400 304C395.6 304 392 300.4 392 296C392 291.6 395.6 288 400 288C405.9 288 411.6 288.4 417.2 289.3C470.9 297.6 512 343.1 512 400C512 461.9 461.9 512 400 512C343.1 512 297.6 470.9 289.3 417.2C288.4 411.6 288 405.9 288 400C288 395.6 291.6 392 296 392C300.4 392 304 395.6 304 400C304 405 304.4 409.1 305.1 414.8C312.2 460.8 352 496 400 496C453 496 496 453 496 400C496 352 460.8 312.2 414.8 305.1z"/></svg>
